assets/spark/icons/SadFill.svg

<svg viewBox="0 0 24 24" xmlns="http://www.w3.org/2000/svg">
    <path fill-rule="evenodd" clip-rule="evenodd" d="M12 2C6.475 2 2 6.475 2 12C2 17.525 6.475 22 12 22C17.525 22 22 17.525 22 12C22 6.475 17.525 2 12 2ZM7.26667 7.25C7.81667 7.25 8.26667 7.7 8.26667 8.25C8.26667 8.35 8.30833 8.45 8.38333 8.525C8.45833 8.6 8.55 8.64167 8.65833 8.64167C8.76667 8.64167 8.85833 8.6 8.93333 8.525C9.00833 8.45 9.05 8.35833 9.05 8.25C9.05 7.7 9.5 7.25 10.05 7.25C10.6 7.25 11.05 7.7 11.05 8.25C11.05 8.88333 10.8 9.49167 10.35 9.93333C9.9 10.3833 9.3 10.6333 8.66667 10.6333C8.03333 10.6333 7.425 10.3833 6.98333 9.93333C6.53333 9.48333 6.28333 8.88333 6.28333 8.25C6.28333 7.7 6.73333 7.25 7.28333 7.25H7.26667ZM16.85 17.0167C16.3583 17.2583 15.7583 17.0583 15.5083 16.5667C14.9833 15.5 14.1083 14.7583 13.1167 14.4917C11.2167 13.9917 9.35 14.9333 8.59167 16.55C8.35833 17.05 7.76667 17.2667 7.26667 17.0333C6.76667 16.8 6.55 16.2083 6.78333 15.7083C7.94167 13.2167 10.8 11.8167 13.6333 12.5667H13.6417C15.2417 13.0083 16.55 14.1667 17.3 15.6917C17.5417 16.1833 17.3417 16.7833 16.85 17.0333V17.0167ZM17.025 9.93333C16.575 10.3833 15.975 10.6333 15.3417 10.6333C14.7083 10.6333 14.1 10.3833 13.6583 9.93333C13.2083 9.48333 12.9583 8.88333 12.9583 8.25C12.9583 7.7 13.4083 7.25 13.9583 7.25C14.5083 7.25 14.9583 7.7 14.9583 8.25C14.9583 8.35 15 8.45 15.075 8.525C15.15 8.6 15.2417 8.64167 15.35 8.64167C15.4583 8.64167 15.55 8.6 15.625 8.525C15.7 8.45 15.7417 8.35833 15.7417 8.25C15.7417 7.7 16.1917 7.25 16.7417 7.25C17.2917 7.25 17.7417 7.7 17.7417 8.25C17.7417 8.88333 17.4917 9.49167 17.0417 9.93333H17.025Z"/>
</svg>

<svg viewBox="0 0 24 24" xmlns="http://www.w3.org/2000/svg">
  <path d="m12,2C6.47,2,2,6.47,2,12s4.47,10,10,10,10-4.48,10-10S17.52,2,12,2Zm-4.73,5.25c.55,0,1,.45,1,1,0,.1.04.2.12.27.07.08.17.12.27.12s.2-.04.27-.12c.08-.07.12-.17.12-.27,0-.55.45-1,1-1s1,.45,1,1c0,.63-.25,1.24-.7,1.68-.45.45-1.05.7-1.68.7s-1.24-.25-1.68-.7c-.45-.45-.7-1.05-.7-1.68,0-.55.45-1,1-1h-.02Zm9.58,9.77c-.49.24-1.09.04-1.34-.45-.52-1.07-1.4-1.81-2.39-2.07-1.9-.5-3.77.44-4.53,2.06-.23.5-.82.72-1.32.48-.5-.23-.72-.83-.48-1.33,1.16-2.49,4.02-3.89,6.85-3.14h0c1.6.44,2.91,1.6,3.66,3.12.24.49.04,1.09-.45,1.34v-.02Zm.17-7.08c-.45.45-1.05.7-1.68.7s-1.24-.25-1.68-.7c-.45-.45-.7-1.05-.7-1.68,0-.55.45-1,1-1s1,.45,1,1c0,.1.04.2.12.27.07.08.17.12.28.12s.2-.04.27-.12c.07-.07.12-.17.12-.27,0-.55.45-1,1-1s1,.45,1,1c0,.63-.25,1.24-.7,1.68h-.02Z"/>
</svg>
